!!!ONB: MCCC : IGF0076_01 : Extracted Monophonic Melody
!!!COM: Fauré, Gabriel
!!!OPR: 2 Pieces, Op.104
!!!OMV: 1
!!!SCT: Op.104
!!!ODT: 1904///
**kern
*staff1
=1
*clefG2
*k[f#c#g#]
*A:
*M3/4
2a
8r
8g#
=2
2a
8r
8g#
=3
4a
8a
8a
8b
8g#
=4
4a
4.f#
16e
16f#
=5
4g
[2f#
=6
8f#]
16e
16f#
2g
=7
8g
8cc
8dd#
8ee
8ff#
8dd#
=8
4ee
4.cc#
16b
16cc#
=9
4dd
2cc#[
=10
8cc#]
16b
16cc#
2dd
=11
4dd
2a#
=12
4a#
4.e#
16e#
16f#
=13
4g#
4.f#
16g#
16a
=14
4b
4.a
16b
16cc#
=15
8dd#
16cc#
16b
4.cc#
16dd
16ee
=16
4ff#
16ff#
16ee
16ee
16dd
16cc
16b
16b
16a
=17
2g[
8g]
16e
16f#
=18
2.g#
=19
4a
4.f#
8g#
=20
8a[
8a]
8g[
8g]
8a
8g#
=21
4a
4.f#
8a
=22
8b[
8b]
8cc
8g
8a
8g#
=23
8a[
8a]
[4f#
8f#]
8a
=24
8cc#[
8cc#]
8ee
8a[
8a]
8g#
=25
8a[
8a]
4e#[
8e#]
8f#
=26
8g#
8g#
4g#[
8g#]
8a
=27
8b[
8b]
4.g
8g#[
=28
4g#]
4e[
8e]
8e#
=29
2.r
=30
4r
4r
8r
8ee[
=31
4ee]
4cc[
8cc]
8cc#
=32
8cc#[
8cc#]
4.a
8a#[
=33
4a#]
[4f#
8f#]
16e
16f#
=34
8g
8g
[4f#
8f#]
8ff#[
=35
4ff#]
4cc[
8cc]
16a
16b
=36
8cc[
8cc]
8cc#
8cc#[
8cc#]
8ee#
=37
8ff#[
8ff#]
[8f#
8f#_
8f#]
16e
16f#
=38
8g[
8g]
8g#
8g#
8g#
8a
=39
8r
4.a
8r
8g#
=40
4a
4a
8r
8g#
=41
4a
8a
8a
8b
8g
=42
4a
8a
8a
8b
8g
=43
4a
4a
8B
8g#
=44
8a
8a
[8f#
8f#_
4f#]
=45
[4g
4g_
4g_
=46
4g_
8g]
8a
8b
8g#
=47
4cc#[
8cc#]
8cc#
8dd#
8cc[
=48
8cc]
8cc#
4cc#[
8cc#]
8dd
=49
4cc#[
4cc#]
8b
8g#
=50
4cc#[
8cc#]
8dd#
8ff#
8cc#[
=51
8cc#]
8dd
4ee#[
8ee#]
8ff#
=52
8ee#
8ee#[
8ee#]
8aa
8ff#
8dd
=53
4ee#[
4ee#]
8ee#
8ff#
=54
8ee#
8ee#[
8ee#]
8aa
8ff#
8bb
=55
8bb
8aa
8gg
8ff#
8ee
8ee#
=56
8ee#
8dd#
8cc#
8b#
8a#
16g#
16a#
=57
4b
4cc
4cc#
=58
4r
4b#
4cc#
=59
4cc#
4cc#
8cc#[
8cc#]
=60
4cc
4cc
8b
16b[
16b]
=61
4a
4a
8cc#[
8cc#]
=62
4cc
4cc
8a#
16a#[
16a#]
=63
4a
4a
8b
16b[
16b]
=64
16a
16A
16a
16A
16b
16B
16b
16B
16b
16B
16b
16B
=65
16cc#
16c#
16cc#
16c#
16dd
16d
16dd
16d
16a
16A
16a
16A
=66
16a
16A
16a
16A
16a
16A
16a
16A
16g
16G
16g
16G
=67
16g
16G
16g
16G
8e#
8e#
8e#
8e#
=68
16g
16G
16g
16G
8e#
8e#
8e#
8e#
=69
8r
8g
8r
8e#
8r
8e#
=70
4f#
4.f#
[16f#
16f#]
=71
8B
[8f#
4f#_
8f#_
8f#_
=72
2.f#]
==
*-
